packages/kaspersky-hexa-ui-icons/src/iconsSVGs/16/ViberColor.svg

<svg width="16" height="16" viewBox="0 0 16 16" fill="none" xmlns="http://www.w3.org/2000/svg">
<g clip-path="url(#clip0_29788_2492)">
<path d="M13.6776 1.50842C13.2933 1.15382 11.7403 0.0264171 8.28102 0.0111004C8.28102 0.0111004 4.20167 -0.234895 2.21305 1.58918C1.10607 2.6964 0.716659 4.31648 0.675583 6.32506C0.634506 8.33364 0.581362 12.0978 4.20979 13.1185H4.21328L4.21096 14.6759C4.21096 14.6759 4.18775 15.3064 4.60292 15.435C5.10513 15.591 5.39986 15.1117 5.87932 14.5951C6.14248 14.3116 6.50591 13.895 6.77975 13.5766C9.26129 13.7855 11.1698 13.3081 11.3866 13.2375C11.8876 13.0751 14.7229 12.7119 15.184 8.94793C15.66 5.0684 14.9538 2.61448 13.6776 1.50842Z" fill="white"/>
<path d="M12.8708 2.29195C12.5459 1.99675 11.1435 1.11558 8.21735 1.10281C8.21735 1.10281 4.75229 0.875151 3.07024 2.3987C2.13406 3.32304 1.81868 4.6976 1.7841 6.37501C1.74952 8.05242 1.57036 11.2569 4.63858 12.1093C4.63858 12.1093 4.62651 14.4882 4.62512 14.6973C4.62512 14.8435 4.64832 14.9435 4.73187 14.9642C4.79198 14.9788 4.88202 14.9477 4.9586 14.8714C5.4492 14.3787 7.01986 12.4838 7.01986 12.4838C9.1273 12.6214 10.804 12.2053 10.9843 12.1464C11.4095 12.0097 13.7091 11.8122 14.0983 8.66857C14.5004 5.42816 13.9504 3.21628 12.8708 2.29195Z" fill="#7360F2"/>
<path d="M7.89633 2.67018C7.73426 2.66905 7.60197 2.79951 7.60084 2.96158C7.59971 3.12365 7.73018 3.25594 7.89224 3.25707C8.91026 3.26416 9.74603 3.59842 10.4198 4.25521C11.0838 4.90257 11.434 5.79802 11.443 6.9779C11.4442 7.13997 11.5766 7.27035 11.7387 7.26912C11.9008 7.26788 12.0311 7.1355 12.0299 6.97344C12.02 5.67263 11.629 4.61436 10.8294 3.83495C10.0396 3.06495 9.05514 2.67825 7.89633 2.67018Z" fill="white"/>
<path d="M7.94659 3.9571C7.95842 3.79546 8.09904 3.67402 8.26068 3.68584C9.10139 3.74737 9.78812 4.03593 10.2902 4.58395C10.7854 5.12506 11.0193 5.79804 11.0023 6.58012C10.9988 6.74215 10.8646 6.87066 10.7026 6.86715C10.5406 6.86365 10.4121 6.72945 10.4156 6.56742C10.4296 5.92 10.24 5.3985 9.8574 4.98041C9.47758 4.5658 8.94361 4.3243 8.21784 4.27119C8.0562 4.25936 7.93476 4.11873 7.94659 3.9571Z" fill="white"/>
<path d="M8.24283 5.01303C8.25128 4.85118 8.38933 4.72682 8.55118 4.73526C8.97137 4.75719 9.33378 4.88528 9.59516 5.15553C9.85517 5.42437 9.97691 5.79439 9.99816 6.22264C10.0062 6.38451 9.88148 6.52224 9.7196 6.53027C9.55773 6.5383 9.42 6.41359 9.41197 6.25172C9.39515 5.91274 9.30301 5.69768 9.17329 5.56356C9.04495 5.43086 8.8418 5.33813 8.5206 5.32138C8.35875 5.31293 8.23439 5.17488 8.24283 5.01303Z" fill="white"/>
<path d="M8.57475 8.85746C8.57475 8.85746 8.84975 8.88067 8.99781 8.69826L9.28651 8.33507C9.42575 8.15498 9.76179 8.04011 10.0909 8.22344C10.3375 8.36409 10.5769 8.51698 10.8082 8.68155C11.0266 8.84215 11.4752 9.21532 11.4752 9.21532C11.6882 9.39517 11.7374 9.65927 11.5924 9.93776L11.5912 9.94356C11.4315 10.2205 11.2286 10.4702 10.9904 10.6834C10.9876 10.6848 10.9876 10.6862 10.985 10.6876C10.778 10.8605 10.5747 10.9589 10.3749 10.9825C10.3455 10.9877 10.3156 10.9896 10.2858 10.9881C10.1977 10.989 10.1101 10.9755 10.0264 10.9482L10.0199 10.9387C9.71213 10.8519 9.19832 10.6347 8.34268 10.1626C7.84753 9.89269 7.37613 9.5813 6.93354 9.23179C6.7117 9.05671 6.50009 8.86905 6.29975 8.66972L6.2357 8.60567C6.22851 8.5987 6.22154 8.59151 6.21435 8.58432C6.01502 8.38398 5.82735 8.17237 5.65227 7.95053C5.30282 7.50798 4.99143 7.03667 4.72144 6.54163C4.2494 5.68575 4.03218 5.1724 3.94539 4.86421L3.93587 4.85772C3.90867 4.77395 3.89526 4.68632 3.89619 4.59826C3.89457 4.56845 3.89636 4.53855 3.90153 4.50914C3.92644 4.30972 4.02491 4.10619 4.19695 3.89857C4.19835 3.89601 4.19974 3.89601 4.20113 3.89323C4.41424 3.65496 4.66399 3.45222 4.94097 3.29263L4.94678 3.29123C5.22526 3.14619 5.48936 3.19539 5.66898 3.40727C5.66898 3.40727 6.04285 3.85586 6.20275 4.07424C6.36734 4.30579 6.52023 4.54543 6.66085 4.79227C6.84419 5.12112 6.72932 5.45785 6.54923 5.59663L6.18604 5.88533C6.0027 6.03339 6.02684 6.30839 6.02684 6.30839C6.02684 6.30839 6.56478 8.34435 8.57475 8.85746Z" fill="white"/>
</g>
<defs>
<clipPath id="clip0_29788_2492">
<rect width="16" height="16" fill="white"/>
</clipPath>
</defs>
</svg>

<svg xmlns="http://www.w3.org/2000/svg" width="16" height="16" fill="none" viewBox="0 0 16 16"><g clip-path="url(#a)"><path fill="#fff" d="M13.6776 1.5084C13.2933 1.1538 11.7403.0264 8.281.0111c0 0-4.0793-.246-6.068 1.578C1.106 2.6965.7168 4.3166.6756 6.3252c-.041 2.0085-.0942 5.7727 3.5342 6.7934h.0035L4.211 14.676s-.0232.6305.392.7591c.5021.156.7969-.3233 1.2763-.8399.2632-.2835.6266-.7001.9005-1.0185 2.4815.2089 4.39-.2685 4.6068-.3391.501-.1624 3.3363-.5256 3.7974-4.2896.476-3.8795-.2302-6.3334-1.5064-7.4395"/><path fill="#7360f2" d="M12.8708 2.292c-.3249-.2952-1.7273-1.1764-4.6534-1.1892 0 0-3.4651-.2276-5.1472 1.2959-.9361.9243-1.2515 2.2989-1.2861 3.9763s-.2137 4.8819 2.8545 5.7343c0 0-.012 2.3789-.0135 2.588 0 .1462.0232.2462.1068.2669.06.0146.1501-.0165.2267-.0928.4906-.4927 2.0613-2.3876 2.0613-2.3876 2.1074.1376 3.7841-.2785 3.9644-.3374.4252-.1367 2.7248-.3342 3.114-3.4778.4021-3.2404-.1479-5.4523-1.2275-6.3766"/><path fill="#fff" d="M7.8963 2.6702a.2934.2934 0 1 0-.004.5869c1.018.007 1.8537.3413 2.5275.9981.664.6474 1.0142 1.5428 1.0232 2.7227a.2934.2934 0 1 0 .5869-.0045c-.0099-1.3008-.4009-2.359-1.2005-3.1384-.7898-.77-1.7743-1.1568-2.933-1.1648"/><path fill="#fff" d="M7.9466 3.9571a.2935.2935 0 0 1 .314-.2713c.8408.0616 1.5275.3501 2.0296.8981.4952.5412.7291 1.2141.7121 1.9962a.2934.2934 0 1 1-.5867-.0127c.014-.6474-.1756-1.1689-.5582-1.587-.3798-.4146-.9138-.6561-1.6396-.7092a.2935.2935 0 0 1-.2712-.3141"/><path fill="#fff" d="M8.243 5.013a.294.294 0 0 1 .308-.278c.42.022.783.15 1.044.42.26.269.382.639.403 1.067a.293.293 0 1 1-.586.029c-.017-.339-.109-.554-.239-.688-.128-.133-.331-.225-.653-.242a.294.294 0 0 1-.278-.308m.333 3.845s.275.023.423-.159l.289-.363c.139-.18.475-.295.804-.112a8.5 8.5 0 0 1 .717.458c.218.161.667.534.667.534.213.18.262.444.117.723l-.001.006a3.01 3.01 0 0 1-.601.74c-.003.001-.003.003-.005.004q-.31.259-.61.295a.4.4 0 0 1-.089.006.81.81 0 0 1-.259-.04l-.006-.009c-.308-.087-.822-.304-1.677-.776a10 10 0 0 1-1.409-.931 7.4 7.4 0 0 1-.634-.562l-.064-.064-.021-.021a7.4 7.4 0 0 1-.562-.634 10 10 0 0 1-.931-1.409c-.472-.856-.689-1.369-.776-1.677l-.009-.006a.81.81 0 0 1-.04-.259.4.4 0 0 1 .005-.089q.037-.299.296-.61c.001-.003.003-.003.004-.005a3 3 0 0 1 .74-.601l.006-.001c.279-.145.543-.096.722.116 0 0 .374.449.534.667q.247.348.458.718c.183.329.069.666-.112.804l-.363.289c-.183.148-.159.423-.159.423s.538 2.036 2.548 2.549"/></g><defs><clipPath id="a"><path fill="#fff" d="M0 0h16v16H0z"/></clipPath></defs></svg>
